fs/cellular_off_24_filled.svg

<svg viewBox="0 0 24 24" fill="none" xmlns="http://www.w3.org/2000/svg" height="1em" width="1em">
  <path d="M3.28034 2.21968C2.98745 1.92678 2.51257 1.92677 2.21968 2.21966C1.92678 2.51255 1.92677 2.98743 2.21966 3.28032L11 12.0608V19C11 19.5523 11.4477 20 12 20C12.5523 20 13 19.5523 13 19V14.0609L15 16.0609V19.0046C15 19.5544 15.4477 20 16 20C16.5523 20 17 19.5544 17 19.0046V18.061L20.7194 21.7805C21.0123 22.0734 21.4872 22.0734 21.7801 21.7805C22.073 21.4876 22.073 21.0127 21.7801 20.7198L3.28034 2.21968ZM19 15.8183L21 17.8183V5.99917C21 5.44736 20.5523 5.00001 20 5.00001C19.4477 5.00001 19 5.44736 19 5.99917V15.8183ZM15 11.8182L17 13.8183V8.99543C17 8.44568 16.5523 8.00001 16 8.00001C15.4477 8.00001 15 8.44568 15 8.99543V11.8182ZM8 14C8.55228 14 9 14.4451 9 14.9942V19.0059C9 19.5549 8.55228 20 8 20C7.44772 20 7 19.5549 7 19.0059V14.9942C7 14.4451 7.44772 14 8 14ZM4 17C4.55228 17 5 17.4403 5 17.9836V19.0164C5 19.5597 4.55228 20 4 20C3.44772 20 3 19.5597 3 19.0164V17.9836C3 17.4403 3.44772 17 4 17Z" fill="#212121"/>
</svg>

<svg viewBox="0 0 24 24" fill="none" xmlns="http://www.w3.org/2000/svg" height="1em" width="1em">
  <path d="M3.28 2.22a.75.75 0 1 0-1.06 1.06L11 12.06V19a1 1 0 1 0 2 0v-4.94l2 2v2.945c0 .55.448.995 1 .995s1-.446 1-.995v-.944l3.72 3.72a.75.75 0 0 0 1.06-1.061L3.28 2.22ZM19 15.818l2 2V6a1 1 0 0 0-2 0v9.82Zm-4-4 2 2V8.995A.998.998 0 0 0 16 8c-.552 0-1 .446-1 .995v2.823ZM8 14c.552 0 1 .445 1 .994v4.012A.997.997 0 0 1 8 20c-.552 0-1-.445-1-.994v-4.012A.997.997 0 0 1 8 14Zm-4 3c.552 0 1 .44 1 .984v1.032A.992.992 0 0 1 4 20c-.552 0-1-.44-1-.984v-1.032A.992.992 0 0 1 4 17Z" fill="#212121"/>
</svg>
